sources/images/icons/mastodon.svg

<svg width="180" height="193" viewBox="0 0 180 193" fill="none" xmlns="http://www.w3.org/2000/svg">
<path d="M90.3213 0C114.992 0.201726 138.738 2.87329 152.566 9.22559C152.566 9.22559 179.993 21.4976 179.993 63.3652C179.994 63.4676 180.33 94.2904 176.168 115.701C173.522 129.316 152.47 144.216 128.291 147.104C115.683 148.608 103.269 149.991 90.0322 149.384C68.4328 148.394 51.3792 144.234 51.3027 144.216C51.3027 146.323 51.4325 148.33 51.6924 150.207C54.5067 171.574 72.8764 172.854 90.2773 173.451C107.836 174.052 123.472 169.122 123.479 169.12L124.201 185.001C124.167 185.019 111.886 191.6 90.0322 192.812C77.9648 193.475 62.9811 192.509 45.5293 187.889C7.67911 177.869 1.16985 137.516 0.173811 96.5723C-0.129771 84.4158 0.0566201 72.9524 0.0566235 63.3652C0.0566235 21.5794 27.3776 9.27351 27.4844 9.22559C41.314 2.87332 65.0446 0.201753 89.7148 0H90.3213ZM118.206 32.7139C107.929 32.714 100.147 36.6639 95.0029 44.5654L90 52.9521L84.998 44.5654C79.8527 36.6639 72.0709 32.7139 61.7949 32.7139C52.913 32.7139 45.7584 35.8365 40.2949 41.9277C34.9967 48.019 32.3584 56.2524 32.3584 66.6133V117.308H52.4394V68.1035C52.4394 57.7313 56.8033 52.4659 65.5312 52.4658C75.1815 52.4658 80.0195 58.7116 80.0195 71.0605V97.9932H99.9824V71.0605C99.9824 58.7116 104.819 52.4659 114.469 52.4658C123.197 52.4658 127.561 57.7312 127.561 68.1035V117.308H147.642V66.6133C147.642 56.2526 145.004 48.019 139.707 41.9277C134.242 35.8364 127.087 32.7139 118.206 32.7139Z" fill="black"/>
</svg>

<svg xmlns="http://www.w3.org/2000/svg" width="180" height="193" fill="none" viewBox="0 0 180 193"><path fill="#000" d="M90.3 0c24.7.2 48.4 2.9 62.3 9.2 0 0 27.4 12.3 27.4 54.2 0 0 .3 30.9-3.8 52.3-2.7 13.6-23.7 28.5-48 31.4-12.5 1.5-25 2.9-38.2 2.3-21.6-1-38.6-5.2-38.7-5.2 0 2.1.1 4.1.4 6 2.8 21.4 21.2 22.7 38.6 23.3 17.5.6 33.2-4.4 33.2-4.4l.7 15.9s-12.3 6.6-34.2 7.8c-12 .7-27-.3-44.5-5C7.7 177.9 1.2 137.6.2 96.7-.1 84.4 0 73 0 63.4 0 21.6 27.4 9.3 27.5 9.2 41.3 3 65 .2 89.7 0zm28 32.7c-10.4 0-18.2 4-23.3 11.9L90 53l-5-8.4a25.9 25.9 0 0 0-23.2-11.9c-8.9 0-16 3.1-21.5 9.2-5.3 6.1-8 14.4-8 24.7v50.7h20.1V68.1c0-10.4 4.4-15.6 13.1-15.6C75.2 52.5 80 58.7 80 71V98h20V71c0-12.3 4.8-18.5 14.5-18.5 8.7 0 13 5.2 13 15.6v49.2h20.1V66.6c0-10.3-2.6-18.6-7.9-24.7-5.5-6-12.6-9.2-21.5-9.2"/></svg>
